webroot/assets/sticky-card/sticky-card-theme-dark.svg

<svg xmlns="http://www.w3.org/2000/svg" width="271" height="349"><g fill="#151515" stroke="#6a6e73"><path stroke="none" d="M3 0h259v349H3a3 3 0 01-3-3V3a3 3 0 013-3z"/><path fill="none" d="M3 .5h258a.5.5 0 01.5.5v347a.5.5 0 01-.5.5H3A2.5 2.5 0 01.5 346V3A2.5 2.5 0 013 .5z"/></g><g fill="#73bcf7"><path d="M150 307l-1.5 1.5 4.5 4.5h-10v2h10l-4.5 4.5 1.5 1.5 7-7z"/><text font-family="RedHatDisplay-Bold, Red Hat Display" font-size="18" font-weight="700" transform="translate(24 320)"><tspan x="0" y="0">Call to action</tspan></text></g><text fill="#fff" font-family="RedHatText-Regular, Red Hat Text" font-size="16" transform="translate(24 193)"><tspan x="0" y="16">This book shows you how </tspan><tspan x="0" y="40">Operators work and how to </tspan><tspan x="0" y="64">build them with the Operator </tspan><tspan x="0" y="88">Framework and SDK.</tspan></text><text fill="#fff" font-family="RedHatDisplay-Medium, Red Hat Display" font-size="20" font-weight="500" transform="translate(24 99)"><tspan x="0" y="20">Automating the </tspan><tspan x="0" y="46">container orchestration </tspan><tspan x="0" y="72">platform</tspan></text><text fill="#fff" font-family="RedHatText-Regular, Red Hat Text" font-size="16" transform="translate(24 78)"><tspan x="0" y="0">E-BOOK</tspan></text><path fill="none" d="M24 24h14v14H24z"/><path fill="#d2d2d2" d="M32.9 31l2.84-2.84a.9.9 0 000-1.27l-.63-.63a.9.9 0 00-1.26 0L31 29.1l-2.84-2.84a.9.9 0 00-1.27 0l-.63.63a.9.9 0 000 1.27L29.1 31l-2.84 2.84a.9.9 0 000 1.27l.63.63a.9.9 0 001.27 0L31 32.9l2.84 2.84a.9.9 0 001.27 0l.63-.63a.9.9 0 000-1.26z"/><path fill="#151515" d="M261 0h10v349h-10z"/></svg>

<svg xmlns="http://www.w3.org/2000/svg" width="268" height="349" viewBox="0 0 268 349"><defs><style>.a{fill:#151515;}.b,.g{fill:none;}.b{stroke:#6a6e73;}.c,.d{fill:#73bcf7;}.d{font-size:18px;font-family:RedHatDisplay-Bold, Red Hat Display;font-weight:700;}.e,.f{fill:#fff;}.e{font-size:16px;font-family:RedHatText-Regular, Red Hat Text;}.f{font-size:20px;font-family:RedHatDisplay-Medium, Red Hat Display;font-weight:500;}.h{fill:#d2d2d2;}</style></defs><g transform="translate(-3)"><path class="a" d="M3,0H262V349H3"/><path class="b" d="M3,.5H261"/><path class="c" d="M150,307l-1.5,1.5L153,313H143v2h10l-4.5,4.5L150,321l7-7Z"/><text class="d" transform="translate(24 320)"><tspan x="0" y="0">Call to action</tspan></text><text class="e" transform="translate(24 209)"><tspan x="0" y="0">This book shows you how </tspan><tspan x="0" y="24">Operators work and how to </tspan><tspan x="0" y="48">build them with the Operator </tspan><tspan x="0" y="72">Framework and SDK.</tspan></text><text class="f" transform="translate(24 119)"><tspan x="0" y="0">Automating the </tspan><tspan x="0" y="26">container orchestration </tspan><tspan x="0" y="52">platform</tspan></text><text class="e" transform="translate(24 78)"><tspan x="0" y="0">E-BOOK</tspan></text><path class="g" d="M24,24H38V38H24Z"/><path class="h" d="M32.9,31l2.84-2.84"/><path class="a" d="M261,0h10V349H261Z"/></g></svg>
